X: 122
T: Laoren de zhuyuan The favour (?) of the old man
%%abc-version 2.0
%%abcx-abcm2ps-target-version 5.9.1 (29 Sep 2008)
%%abc-creator hum2abc beta
%%abcx-conversion-date 2013/10/02 07:44:27
%%abc-edited-by Helmut Schaffrath
%%humdrum-veritas 4065927751
%%humdrum-veritas-data 1890931206
%%continueall 1
%%barnumbers 0
L: 1/8
M: 2/4
K: C
E A E D [I:setbarnb 1]| 
E D D E | 
A2d2 | 
E AE2 | 
E D D E | 
A4 | 
D3E | 
A3d | 
CD2E | 
G GA2 | 
A d C C | 
DE2C | 
A,4- | 
A,4 |]  



